src/assets/figma.svg

<svg width="50" height="50" viewBox="0 0 70 70" fill="none" xmlns="http://www.w3.org/2000/svg">
<path fill-rule="evenodd" clip-rule="evenodd" d="M19.5282 4.90272H12.236C8.20867 4.90272 4.94385 8.14038 4.94385 12.1342C4.94385 16.1281 8.20867 19.3657 12.236 19.3657H19.5282V4.90272ZM19.5282 0H24.472H31.7642C38.5222 0 44 5.43265 44 12.1342C44 16.089 42.0927 19.6019 39.1397 21.8171C42.0927 24.0324 44 27.5453 44 31.5C44 38.2016 38.5222 43.6343 31.7642 43.6343C29.0318 43.6343 26.5086 42.7461 24.472 41.245V43.6343V50.8658C24.472 57.5673 18.9938 63 12.236 63C5.47823 63 0 57.5673 0 50.8658C0 46.9107 1.90773 43.3981 4.8604 41.1828C1.90773 38.9676 0 35.4547 0 31.5C0 27.5453 1.90778 24.0324 4.86049 21.8172C1.90778 19.6019 0 16.089 0 12.1342C0 5.43265 5.47823 0 12.236 0H19.5282ZM24.472 4.90272V19.3657H31.7642C35.7917 19.3657 39.0562 16.1281 39.0562 12.1342C39.0562 8.14038 35.7917 4.90272 31.7642 4.90272H24.472ZM12.236 38.7314H19.5282V31.5187V31.5V31.4814V24.2685H12.236C8.20867 24.2685 4.94385 27.5062 4.94385 31.5C4.94385 35.4843 8.19304 38.716 12.2071 38.7315L12.236 38.7314ZM4.94385 50.8658C4.94385 46.8813 8.19304 43.6497 12.2071 43.6342L12.236 43.6343H19.5282V50.8658C19.5282 54.8595 16.2634 58.0973 12.236 58.0973C8.20867 58.0973 4.94385 54.8595 4.94385 50.8658ZM24.472 31.4856C24.4799 27.4984 27.7417 24.2685 31.7642 24.2685C35.7917 24.2685 39.0562 27.5062 39.0562 31.5C39.0562 35.4939 35.7917 38.7315 31.7642 38.7315C27.7417 38.7315 24.4799 35.5017 24.472 31.5144V31.4856Z" fill="white"/>
</svg>

<svg xmlns="http://www.w3.org/2000/svg" width="50" height="50" fill="none" viewBox="0 0 70 70"><path fill="#fff" fill-rule="evenodd" d="M19.528 4.903h-7.292c-4.027 0-7.292 3.237-7.292 7.231s3.265 7.232 7.292 7.232h7.292zm0-4.903h12.236C38.522 0 44 5.433 44 12.134c0 3.955-1.907 7.468-4.86 9.683C42.093 24.032 44 27.545 44 31.5c0 6.702-5.478 12.134-12.236 12.134a12.25 12.25 0 0 1-7.292-2.389v9.62C24.472 57.568 18.994 63 12.236 63S0 57.567 0 50.866c0-3.955 1.908-7.468 4.86-9.683C1.908 38.968 0 35.455 0 31.5s1.908-7.468 4.86-9.683C1.908 19.602 0 16.09 0 12.134 0 5.433 5.478 0 12.236 0zm4.944 4.903v14.463h7.292c4.028 0 7.292-3.238 7.292-7.232s-3.264-7.231-7.292-7.231zM12.236 38.73h7.292V24.268h-7.292c-4.027 0-7.292 3.238-7.292 7.232 0 3.984 3.249 7.216 7.263 7.231zM4.944 50.866c0-3.985 3.249-7.216 7.263-7.232h7.321v7.232c0 3.993-3.265 7.231-7.292 7.231s-7.292-3.238-7.292-7.231m19.528-19.38c.008-3.988 3.27-7.218 7.292-7.218 4.028 0 7.292 3.238 7.292 7.232s-3.264 7.231-7.292 7.231c-4.022 0-7.284-3.23-7.292-7.217z" clip-rule="evenodd"/></svg>
